!!!SOCIAL_FUNCTION:	bird dance songs
!!!PDT:	1956
!!!OTL: No_109_Hinata_Dance_Song_(e).krn
!!!LANG: Non-Tone
!!!LING_GROUP: Muskogean
!!!REG: Florida
**kern
*staff1
=1-
=
*clefF4
*k[b-]
*M2/4
16d\LK
8.c\J
12c\L
12B-\
12A\J
=2
12c\L
12B-\
12A\J
12F\L
8F\
24E\Jk
=3||
*M3/8
16F\LK
8.F\
8A\J
=4||
*M2/4
4.c\
8B-\
=5
12A\L
12F\
12F\J
(12F\L
12E\)
12F\J
=6
4F\
8C/
16r
16E\
=7||
*M3/4
16F/LL
16C/
16C/
16C/JJ
4C/
4E\
=8||
*M2/4
4F\
(8F\L
8A\J)
=9
12A\L
12F\
12F\J
8.F\L
16F\Jk
=10
4F\
8C/L
8C/J
=11||
*M3/4
(12D/L
12C/)
12C/J
4C/
8r
8C/
==:|!
*-
